X: 1521
T: Nişâburek Seyir
C: Erol Bingöl
O: Turkey
F: http://compmusic.upf.edu/node/140
N: nisaburek--seyir--devrihindi--1--erol_bingol
N: makam= nisaburek
N: form= seyir
N: usul= devrihindi = 7/4
M: 7/4
L: 1/16
K: C ^9/8f ^3/4c ^3/4g 
Q: 1/4=60
%%MIDI tuningsystem comma53
A4 e4 e4 e3d c2d2 e8  | e2f2 e2d2 d2c2 c3B B2BA A8  | \
w:   |   | 
A3B c2d2 e2f2 g2a2 =g2f2 e3d c4  | 
w:   | 
g2a2 b4 a2g2 g2f2 f2e2 e8  | e4 f4 e4 d3c B2c2 d8  | \
w:   |   | 
c2d2 e4 d2c2 c2B2 d2cB B8  | 
w:   | 
A4 B4 c4 d2e2 d2c2 B2A2 G2F2  | E4 F4 G4 A2G2 c2BA A8  | |


